src/assets/Star.svg

<svg width="33" height="32" viewBox="0 0 33 32" fill="none" xmlns="http://www.w3.org/2000/svg">
<path d="M25.4696 19.7122C25.0552 20.1138 24.8648 20.6946 24.9592 21.2642L26.3816 29.1362C26.5016 29.8034 26.22 30.4786 25.6616 30.8642C25.1144 31.2642 24.3864 31.3122 23.7896 30.9922L16.7032 27.2962C16.4568 27.165 16.1832 27.0946 15.9032 27.0866H15.4696C15.3192 27.109 15.172 27.157 15.0376 27.2306L7.94959 30.9442C7.59919 31.1202 7.20239 31.1826 6.81359 31.1202C5.86639 30.941 5.23439 30.0386 5.38959 29.0866L6.81359 21.2146C6.90799 20.6402 6.71759 20.0562 6.30319 19.6482L0.525591 14.0482C0.042391 13.5794 -0.125609 12.8754 0.095191 12.2402C0.309591 11.6066 0.856791 11.1442 1.51759 11.0402L9.46959 9.88663C10.0744 9.82423 10.6056 9.45623 10.8776 8.91223L14.3816 1.72823C14.4648 1.56823 14.572 1.42103 14.7016 1.29623L14.8456 1.18423C14.9208 1.10103 15.0072 1.03223 15.1032 0.976232L15.2776 0.912232L15.5496 0.800232H16.2232C16.8248 0.862632 17.3544 1.22263 17.6312 1.76023L21.1816 8.91223C21.4376 9.43543 21.9352 9.79863 22.5096 9.88663L30.4616 11.0402C31.1336 11.1362 31.6952 11.6002 31.9176 12.2402C32.1272 12.8818 31.9464 13.5858 31.4536 14.0482L25.4696 19.7122Z" fill="#00F6FF"/>
</svg>

<svg xmlns="http://www.w3.org/2000/svg" width="33" height="32" fill="none" xmlns:v="https://vecta.io/nano"><path d="M25.47 19.712a1.76 1.76 0 0 0-.51 1.552l1.422 7.872a1.73 1.73 0 0 1-.72 1.728 1.76 1.76 0 0 1-1.872.128l-7.086-3.696a1.81 1.81 0 0 0-.8-.21h-.434a1.3 1.3 0 0 0-.432.144L7.95 30.944a1.87 1.87 0 0 1-1.136.176 1.78 1.78 0 0 1-1.424-2.034l1.424-7.872a1.79 1.79 0 0 0-.51-1.566l-5.778-5.6c-.483-.469-.651-1.173-.43-1.808.214-.634.762-1.096 1.422-1.2L9.47 9.887a1.78 1.78 0 0 0 1.408-.974l3.504-7.184c.083-.16.19-.307.32-.432l.144-.112c.075-.083.162-.152.258-.208l.174-.064L15.55.8h.674a1.79 1.79 0 0 1 1.408.96l3.55 7.152a1.78 1.78 0 0 0 1.328.974l7.952 1.154c.672.096 1.234.56 1.456 1.2a1.74 1.74 0 0 1-.464 1.808l-5.984 5.664z" fill="#00f6ff"/></svg>
